tnt-russia-btg-map/map/images/UKR_Mechanized_Infantry_Brigade.svg

<svg width="50" height="50" viewBox="0 0 50 50" fill="none" xmlns="http://www.w3.org/2000/svg">
<path d="M42.1803 17.8401H7.82031V40.6701H42.1803V17.8401Z" fill="#7891C9" stroke="#232323"/>
<path d="M24.0934 12.4901L22.3934 9.32007H24.0334L24.6034 10.5501C24.7534 10.8501 24.8934 11.1901 25.0734 11.6001H25.1134C25.2634 11.1901 25.4034 10.8501 25.5334 10.5501L26.0534 9.32007H27.6234L25.9334 12.5601L27.7334 15.8401H26.0934L25.4434 14.5101C25.2834 14.1701 25.1334 13.8401 24.9534 13.4401H24.9034C24.7534 13.8401 24.6034 14.1701 24.4634 14.5101L23.8534 15.8401H22.2734L24.0934 12.4901Z" fill="#232323"/>
<path d="M7.82031 17.8401L42.1803 40.6801" stroke="#232323"/>
<path d="M7.82031 40.6801L42.1803 17.8401" stroke="#232323"/>
<path d="M24.81 34.0799C30.2279 34.0799 34.62 31.922 34.62 29.2599C34.62 26.5979 30.2279 24.4399 24.81 24.4399C19.3921 24.4399 15 26.5979 15 29.2599C15 31.922 19.3921 34.0799 24.81 34.0799Z" stroke="#232323" stroke-miterlimit="10"/>
</svg>

<svg enable-background="new 0 0 50 50" viewBox="0 0 50 50" xmlns="http://www.w3.org/2000/svg"><path d="m7.82 17.84h34.36v22.83h-34.36z" fill="#7891c9" stroke="#232323"/><path d="m24.09 12.49-1.7-3.17h1.64l.57 1.23c.15.3.29.64.47 1.05h.04c.15-.41.29-.75.42-1.05l.52-1.23h1.57l-1.69 3.24 1.8 3.28h-1.64l-.65-1.33c-.16-.34-.31-.67-.49-1.07h-.05c-.15.4-.3.73-.44 1.07l-.61 1.33h-1.58z" fill="#232323"/><g fill="none" stroke="#232323"><path d="m7.82 17.84 34.36 22.84"/><path d="m7.82 40.68 34.36-22.84"/><path d="m25 40.68v-22.84"/></g></svg>
